X:4288
L:1/8
M:2/2
K:D
"^A" |: dcAG FADF | E2 (cE) dEcE | dcAG FADF | Dddc |1 dfed :|2 d2 !fermata!d2"^B" | fedf efge | 
 afge afge | fedf efge | afge (fd) e2 | fedf efge | afge f2 (fg) | afge fdec | Addc dfe"_D.C."d |]

